X:3470
T:Mazurka de Servant
M:3/4
O:France
R:Mazurka
Z:Richard Robinson 
%%TUNEURL: http://www.leeds.ac.uk/music/Info/RRTuneBk/gettune/00000b45.html
%%ID:00000b45
K:G
ded|\
G2GdcB| A2A2 Bc| d2dcBA| B2Gded|\
G2GdcB| A2A2 Bc| d2dcBA| G3 :|
|: Bcd|\
e2edcB| A2A2 Bc| d2 dcBA| B2GBcd|\
e2edcB| A2A2 Bc| d2 dcBA| G3 :|
